static/img/kroki/471d2ae1620b93b9c98582265b74d1af.svg

<?xml version="1.0" encoding="us-ascii" standalone="no"?><svg xmlns="http://www.w3.org/2000/svg" xmlns:xlink="http://www.w3.org/1999/xlink" contentStyleType="text/css" height="374px" preserveAspectRatio="none" style="width:262px;height:374px;" version="1.1" viewBox="0 0 262 374" width="262px" zoomAndPan="magnify"><defs/><g><!--class kubernetes_resource--><g id="elem_kubernetes_resource"><rect codeLine="23" fill="#3D176E" height="39.7891" id="kubernetes_resource" rx="2.5" ry="2.5" style="stroke:#000D19;stroke-width:0.5;" width="216" x="23" y="167.79"/><ellipse cx="38" cy="187.6845" fill="#ADD1B2" rx="11" ry="11" style="stroke:#181818;stroke-width:1.0;"/><path d="M40.9688,193.3252 Q40.3906,193.622 39.75,193.7627 Q39.1094,193.9189 38.4063,193.9189 Q35.9063,193.9189 34.5781,192.2783 Q33.2656,190.622 33.2656,187.497 Q33.2656,184.372 34.5781,182.7158 Q35.9063,181.0595 38.4063,181.0595 Q39.1094,181.0595 39.75,181.2158 Q40.4063,181.372 40.9688,181.6689 L40.9688,184.3877 Q40.3438,183.8095 39.75,183.5439 Q39.1563,183.2627 38.5313,183.2627 Q37.1875,183.2627 36.5,184.3408 Q35.8125,185.4033 35.8125,187.497 Q35.8125,189.5908 36.5,190.6689 Q37.1875,191.7314 38.5313,191.7314 Q39.1563,191.7314 39.75,191.4658 Q40.3438,191.1845 40.9688,190.6064 L40.9688,193.3252 Z " fill="#000000"/><text fill="#D9B8FF" font-family="Helvetica" font-size="17" lengthAdjust="spacing" textLength="174" x="57" y="193.5698">kubernetes_resource</text></g><!--class kubernetes_role_binding--><g id="elem_kubernetes_role_binding"><rect codeLine="26" fill="#3D176E" height="39.7891" id="kubernetes_role_binding" rx="2.5" ry="2.5" style="stroke:#000D19;stroke-width:0.5;" width="248" x="7" y="328.58"/><ellipse cx="22" cy="348.4745" fill="#ADD1B2" rx="11" ry="11" style="stroke:#181818;stroke-width:1.0;"/><path d="M24.9688,354.1152 Q24.3906,354.412 23.75,354.5527 Q23.1094,354.7089 22.4063,354.7089 Q19.9063,354.7089 18.5781,353.0683 Q17.2656,351.412 17.2656,348.287 Q17.2656,345.162 18.5781,343.5058 Q19.9063,341.8495 22.4063,341.8495 Q23.1094,341.8495 23.75,342.0058 Q24.4063,342.162 24.9688,342.4589 L24.9688,345.1777 Q24.3438,344.5995 23.75,344.3339 Q23.1563,344.0527 22.5313,344.0527 Q21.1875,344.0527 20.5,345.1308 Q19.8125,346.1933 19.8125,348.287 Q19.8125,350.3808 20.5,351.4589 Q21.1875,352.5214 22.5313,352.5214 Q23.1563,352.5214 23.75,352.2558 Q24.3438,351.9745 24.9688,351.3964 L24.9688,354.1152 Z " fill="#000000"/><text fill="#D9B8FF" font-family="Helvetica" font-size="17" lengthAdjust="spacing" textLength="206" x="41" y="354.3598">kubernetes_role_binding</text></g><!--class resource--><g id="elem_resource"><rect codeLine="29" fill="#3D176E" height="39.7891" id="resource" rx="2.5" ry="2.5" style="stroke:#000D19;stroke-width:0.5;" width="113" x="74.5" y="7"/><ellipse cx="89.5" cy="26.8945" fill="#ADD1B2" rx="11" ry="11" style="stroke:#181818;stroke-width:1.0;"/><path d="M92.4688,32.5352 Q91.8906,32.832 91.25,32.9727 Q90.6094,33.1289 89.9063,33.1289 Q87.4063,33.1289 86.0781,31.4883 Q84.7656,29.832 84.7656,26.707 Q84.7656,23.582 86.0781,21.9258 Q87.4063,20.2695 89.9063,20.2695 Q90.6094,20.2695 91.25,20.4258 Q91.9063,20.582 92.4688,20.8789 L92.4688,23.5977 Q91.8438,23.0195 91.25,22.7539 Q90.6563,22.4727 90.0313,22.4727 Q88.6875,22.4727 88,23.5508 Q87.3125,24.6133 87.3125,26.707 Q87.3125,28.8008 88,29.8789 Q88.6875,30.9414 90.0313,30.9414 Q90.6563,30.9414 91.25,30.6758 Q91.8438,30.3945 92.4688,29.8164 L92.4688,32.5352 Z " fill="#000000"/><text fill="#D9B8FF" font-family="Helvetica" font-size="17" lengthAdjust="spacing" textLength="71" x="108.5" y="32.7798">resource</text></g><!--reverse link resource to kubernetes_resource--><g id="link_resource_kubernetes_resource"><path codeLine="32" d="M131,65.05 C131,95.57 131,136.9 131,167.46 " fill="none" id="resource-backto-kubernetes_resource" style="stroke:#FFAF37;stroke-width:2.0;"/><polygon fill="none" points="131,47.05,125,65.05,137,65.05,131,47.05" style="stroke:#FFAF37;stroke-width:2.0;"/></g><!--reverse link kubernetes_resource to kubernetes_role_binding--><g id="link_kubernetes_resource_kubernetes_role_binding"><path codeLine="33" d="M131,225.84 C131,256.36 131,297.69 131,328.25 " fill="none" id="kubernetes_resource-backto-kubernetes_role_binding" style="stroke:#FFAF37;stroke-width:2.0;"/><polygon fill="none" points="131,207.84,125,225.84,137,225.84,131,207.84" style="stroke:#FFAF37;stroke-width:2.0;"/></g><!--SRC=[XPBDRi8m48JlVWfBd2CbHMs8r0j4gjeBgahlo8dNn4fYH-jD4Vrvzn9eaKa27Etvl3EpSg4bSAWRsl4QwWpGCLTgqmWKDPyZscrgAujyefHGqxWlFbb3Du6bg84_G_K1f7FH9zuBdPS6dEDtdhGGURb1snfv74yeZDjBOCYZqaeuDoT2dRK4NXYPP3Eb-cH_w6Gge_W11fX52VY7X64eewIFtBIwslj4hFGdyCXVsj8I368EB0xKrPGTuOKS5FtNBsPy5L9gi-7ttjtRCHCQmBFxLI6atNQq4fNpRHm1WgLT0-cW5IGpgU9H-EKIpF9kTRnizp_L085R8pZROWxyYx6V4TbMiCwqENJnaFDdfzFZTn04O-FPcEMGzjpOBm00]--></g></svg>

<svg xmlns="http://www.w3.org/2000/svg" width="262" height="374" viewBox="0 0 262 374"><rect width="216" height="39.789" x="23" y="167.79" fill="#3D176E" rx="2.5" ry="2.5" style="stroke:#000d19;stroke-width:.5"/><circle cx="38" cy="187.685" r="11" fill="#ADD1B2" style="stroke:#181818;stroke-width:1"/><path d="M40.969 193.325q-.578.297-1.219.438-.64.156-1.344.156-2.5 0-3.828-1.64-1.312-1.657-1.312-4.782t1.312-4.781q1.328-1.656 3.828-1.656.703 0 1.344.156.656.156 1.219.453v2.719q-.625-.578-1.219-.844-.594-.281-1.219-.281-1.343 0-2.031 1.078-.687 1.062-.687 3.156t.687 3.172q.688 1.062 2.031 1.062.625 0 1.219-.265.594-.281 1.219-.86z"/><text x="57" y="193.57" fill="#D9B8FF" font-family="Helvetica" font-size="17" textLength="174">kubernetes_resource</text><rect width="248" height="39.789" x="7" y="328.58" fill="#3D176E" rx="2.5" ry="2.5" style="stroke:#000d19;stroke-width:.5"/><circle cx="22" cy="348.474" r="11" fill="#ADD1B2" style="stroke:#181818;stroke-width:1"/><path d="M24.969 354.115q-.578.297-1.219.438-.64.156-1.344.156-2.5 0-3.828-1.64-1.312-1.657-1.312-4.782t1.312-4.781q1.328-1.656 3.828-1.656.703 0 1.344.156.656.156 1.219.453v2.719q-.625-.579-1.219-.844-.594-.281-1.219-.281-1.343 0-2.031 1.078-.687 1.062-.687 3.156t.687 3.172q.688 1.062 2.031 1.062.625 0 1.219-.265.594-.281 1.219-.86z"/><text x="41" y="354.36" fill="#D9B8FF" font-family="Helvetica" font-size="17" textLength="206">kubernetes_role_binding</text><rect width="113" height="39.789" x="74.5" y="7" fill="#3D176E" rx="2.5" ry="2.5" style="stroke:#000d19;stroke-width:.5"/><circle cx="89.5" cy="26.895" r="11" fill="#ADD1B2" style="stroke:#181818;stroke-width:1"/><path d="M92.469 32.535q-.578.297-1.219.438-.64.156-1.344.156-2.5 0-3.828-1.64-1.312-1.657-1.312-4.782t1.312-4.781q1.328-1.656 3.828-1.656.703 0 1.344.156.656.156 1.219.453v2.719q-.625-.578-1.219-.844-.594-.281-1.219-.281-1.344 0-2.031 1.078-.687 1.062-.687 3.156T88 29.879q.688 1.062 2.031 1.062.625 0 1.219-.265.594-.281 1.219-.86z"/><text x="108.5" y="32.78" fill="#D9B8FF" font-family="Helvetica" font-size="17" textLength="71">resource</text><path fill="none" d="M131 65.05v102.41m0-120.41-6 18h12zm0 178.79v102.41m0-120.41-6 18h12z" style="stroke:#ffaf37;stroke-width:2"/></svg>
